X: 68
T: Roscoe
K:G
M:C|
L:1/8     
def |:"G"gedg edBc |dBAB Gdef |gedg edfg |"D"a4-adef |
"G"gedg ed B2 |"C"c3 d c2 Bc |"G"dcBG "D"AG F2 ||1"G"G4-Gdef :|2"G"G6 G2 ||
|:"G"G2 BG AGBG |"C"c3 d cABA |"G"GABG AGFE |"D"D3 E DDEF |
"G"GABG AGBG |"C"c3 d c2 Bc ||1"G"BAGB "D"AG F2 |"G"G6 G2 :|2"G"dedB "D"AG F2 |"G"G6 |]

